SVG_Azure_All/NGINX Deployment.svg

<?xml version="1.0" encoding="UTF-8" standalone="no"?>
<!-- Generated by Microsoft Visio, SVG Export NGINX Deployment.svg Page-1 -->

<svg
   xmlns:dc="http://purl.org/dc/elements/1.1/"
   xmlns:cc="http://creativecommons.org/ns#"
   xmlns:rdf="http://www.w3.org/1999/02/22-rdf-syntax-ns#"
   xmlns:svg="http://www.w3.org/2000/svg"
   xmlns="http://www.w3.org/2000/svg"
   xmlns:sodipodi="http://sodipodi.sourceforge.net/DTD/sodipodi-0.dtd"
   xmlns:inkscape="http://www.inkscape.org/namespaces/inkscape"
   width="0.70861495in"
   height="0.78742409in"
   viewBox="0 0 51.020236 56.694532"
   xml:space="preserve"
   class="st5"
   version="1.1"
   id="svg31"
   sodipodi:docname="NGINX Deployment.svg"
   style="font-size:12px;overflow:visible;color-interpolation-filters:sRGB;fill:none;fill-rule:evenodd;stroke-linecap:square;stroke-miterlimit:3"
   inkscape:version="0.92.5 (2060ec1f9f, 2020-04-08)"><metadata
   id="metadata37"><rdf:RDF><cc:Work
       rdf:about=""><dc:format>image/svg+xml</dc:format><dc:type
         rdf:resource="http://purl.org/dc/dcmitype/StillImage" /></cc:Work></rdf:RDF></metadata><defs
   id="defs35" /><sodipodi:namedview
   pagecolor="#ffffff"
   bordercolor="#666666"
   borderopacity="1"
   objecttolerance="10"
   gridtolerance="10"
   guidetolerance="10"
   inkscape:pageopacity="0"
   inkscape:pageshadow="2"
   inkscape:window-width="640"
   inkscape:window-height="480"
   id="namedview33"
   showgrid="false"
   inkscape:zoom="1.7635102"
   inkscape:cx="34.015948"
   inkscape:cy="21.556355"
   inkscape:window-x="0"
   inkscape:window-y="0"
   inkscape:window-maximized="0"
   inkscape:current-layer="svg31" />
	<style
   type="text/css"
   id="style2">
	<![CDATA[
		.st1 {fill:#009639}
		.st2 {stroke:none;stroke-linecap:butt;stroke-width:9.65909}
		.st3 {fill:#ffffff;stroke:none;stroke-linecap:butt;stroke-width:9.65909}
		.st4 {fill:#999999;stroke:none;stroke-linecap:butt;stroke-width:9.65909}
		.st5 {fill:none;fill-rule:evenodd;font-size:12px;overflow:visible;stroke-linecap:square;stroke-miterlimit:3}
	]]>
	</style>

	<g
   id="g29"
   transform="translate(-9.6590627,-9.6567291)">
		<title
   id="title4">Page-1</title>
		<g
   id="group2811-1"
   transform="translate(9.65923,-34.0157)">
			<title
   id="title6">NGINX Deployment</title>
			<g
   id="group2812-2">
				<title
   id="title8"> NGINX-hex-source-RGB-02</title>
				<g
   id="shape2813-3">
					<title
   id="title10">Sheet.2813</title>
					<path
   d="m 0.4,86.19 a 2.92988,2.8638 -180 0 0 1.1,1.07 l 22.52,12.71 a 2.95486,2.88821 -180 0 0 2.99,0 L 49.53,87.26 a 2.95324,2.88664 -180 0 0 1.49,-2.53 v -25.42 0 A 2.95405,2.88742 -180 0 0 49.53,56.78 L 27.01,44.07 a 2.95083,2.88428 -180 0 0 -2.99,0 L 1.5,56.78 A 2.95244,2.88585 -180 0 0 0,59.31 v 25.42 a 2.93552,2.86931 -180 0 0 0.39,1.46 z"
   class="st1"
   id="path12"
   inkscape:connector-curvature="0"
   style="fill:#009639" />
					<path
   d="m 0.4,86.19 a 2.92988,2.8638 -180 0 0 1.1,1.07 l 22.52,12.71 a 2.95486,2.88821 -180 0 0 2.99,0 L 49.53,87.26 a 2.95324,2.88664 -180 0 0 1.49,-2.53 v -25.42 0 A 2.95405,2.88742 -180 0 0 49.53,56.78 L 27.01,44.07 a 2.95083,2.88428 -180 0 0 -2.99,0 L 1.5,56.78 A 2.95244,2.88585 -180 0 0 0,59.31 v 25.42 a 2.93552,2.86931 -180 0 0 0.39,1.46"
   class="st2"
   id="path14"
   inkscape:connector-curvature="0"
   style="stroke:none;stroke-width:9.65909004;stroke-linecap:butt" />
				</g>
				<g
   id="shape2814-6"
   transform="translate(12.5098,-15.8406)">
					<title
   id="title17">Sheet.2814</title>
					<path
   d="m 5.79,97.54 a 2.89605,2.83073 0 1 1 -5.79,0 v 0 -19.43 C 0,76.6 1.36,75.36 3.29,75.36 a 5.15005,5.0339 0 0 1 3.95,1.72 l 0.87,1.02 12.1,14.16 v -14.07 0 a 2.89605,2.83073 0 0 1 5.79,0 v 19.43 c 0,1.5 -1.36,2.75 -3.29,2.75 A 5.14683,5.03075 0 0 1 18.76,98.64 L 5.79,83.46 Z"
   class="st3"
   id="path19"
   inkscape:connector-curvature="0"
   style="fill:#ffffff;stroke:none;stroke-width:9.65909004;stroke-linecap:butt" />
				</g>
				<g
   id="shape2815-8"
   transform="translate(47.1613,-4.40665)">
					<title
   id="title22">Sheet.2815</title>
					<path
   d="M 1.14,99.51 H 1.51 V 98.7 h 0.3 a 0.835383,0.816542 0 0 1 0.410844,0.06693 0.515569,0.503941 0 0 1 0.195755,0.468508 L 2.41,99.4 2.42,99.47 a 0.127281,0.12441 0 0 1 0.00644,0.02599 C 2.43,99.5 2.43,99.5 2.44,99.51 H 2.78 L 2.77,99.49 A 0.240867,0.235435 0 0 1 2.7538885,99.385275 C 2.74,99.32 2.74,99.27 2.74,99.23 V 99.08 A 0.597738,0.584257 -180 0 0 2.625608,98.760312 0.532486,0.520477 -180 0 0 2.260682,98.56031 0.90144,0.881109 -180 0 0 2.56519,98.463459 0.456762,0.44646 -180 0 0 2.769807,98.057944 0.515569,0.503941 -180 0 0 2.445965,97.538255 1.61115,1.57482 -180 0 0 1.88,97.46 H 1.14 Z M 2.2,98.4 A 0.957025,0.935441 0 0 1 1.847963,98.44567 L 1.51,98.45 V 97.7 h 0.32 a 0.930441,0.909456 0 0 1 0.444678,0.08032 0.317397,0.310239 0 0 1 0.138559,0.299215 0.322231,0.314963 0 0 1 -0.2167,0.320475 z m 1.07,-1.23 a 1.85927,1.81734 -180 0 0 -1.36,-0.54 1.9131552,1.87 -180 1 0 0,3.74 1.91486,1.87167 -180 0 0 1.36,-3.2 z M 3.08,97.36 A 1.56604,1.53072 0 0 1 3.56,98.5 1.64338,1.60631 0 0 1 0.75,99.64 1.62163,1.58505 0 0 1 0.27,98.5 1.64821,1.61104 0 0 1 1.91,96.88 1.56765,1.5323 0 0 1 3.08,97.36 Z"
   class="st4"
   id="path24"
   inkscape:connector-curvature="0"
   style="fill:#999999;stroke:none;stroke-width:9.65909004;stroke-linecap:butt" />
				</g>
			</g>
		</g>
	</g>
</svg>

<?xml version="1.0" encoding="UTF-8" standalone="no"?>
<!DOCTYPE svg PUBLIC "-//W3C//DTD SVG 1.1//EN" "http://www.w3.org/Graphics/SVG/1.1/DTD/svg11.dtd">
<!-- Generated by Microsoft Visio, SVG Export NGINX Deployment.svg Page-1 -->
<svg xmlns="http://www.w3.org/2000/svg" xmlns:xlink="http://www.w3.org/1999/xlink" xmlns:ev="http://www.w3.org/2001/xml-events"
		width="0.976973in" height="1.394in" viewBox="0 0 70.342 100.368" xml:space="preserve" color-interpolation-filters="sRGB"
		class="st5">
	<style type="text/css">
	<![CDATA[
		.st1 {fill:#009639}
		.st2 {stroke:none;stroke-linecap:butt;stroke-width:9.65909}
		.st3 {fill:#ffffff;stroke:none;stroke-linecap:butt;stroke-width:9.65909}
		.st4 {fill:#999999;stroke:none;stroke-linecap:butt;stroke-width:9.65909}
		.st5 {fill:none;fill-rule:evenodd;font-size:12px;overflow:visible;stroke-linecap:square;stroke-miterlimit:3}
	]]>
	</style>

	<g>
		<title>Page-1</title>
		<g id="group2785-1" transform="translate(9.65923,-34.0157)">
			<title>NGINX Deployment</title>
			<g id="group2786-2">
				<title> NGINX-hex-source-RGB-02</title>
				<g id="shape2787-3">
					<title>Sheet.2787</title>
					<path d="M0.4 86.19 A2.92988 2.8638 -180 0 0 1.5 87.26 L24.02 99.97 A2.95486 2.88821 -180 0 0 27.01 99.97 L49.53
								 87.26 A2.95324 2.88664 -180 0 0 51.02 84.73 L51.02 59.31 L51.02 59.31 A2.95405 2.88742 -180 0 0
								 49.53 56.78 L27.01 44.07 A2.95083 2.88428 -180 0 0 24.02 44.07 L1.5 56.78 A2.95244 2.88585 -180
								 0 0 0 59.31 L0 84.73 A2.93552 2.86931 -180 0 0 0.39 86.19 L0.4 86.19 Z" class="st1"/>
					<path d="M0.4 86.19 A2.92988 2.8638 -180 0 0 1.5 87.26 L24.02 99.97 A2.95486 2.88821 -180 0 0 27.01 99.97 L49.53
								 87.26 A2.95324 2.88664 -180 0 0 51.02 84.73 L51.02 59.31 L51.02 59.31 A2.95405 2.88742 -180 0 0
								 49.53 56.78 L27.01 44.07 A2.95083 2.88428 -180 0 0 24.02 44.07 L1.5 56.78 A2.95244 2.88585 -180
								 0 0 0 59.31 L0 84.73 A2.93552 2.86931 -180 0 0 0.39 86.19" class="st2"/>
				</g>
				<g id="shape2788-6" transform="translate(12.5098,-15.8406)">
					<title>Sheet.2788</title>
					<path d="M5.79 97.54 A2.89605 2.83073 0 1 1 0 97.54 L0 97.54 L0 78.11 C0 76.6 1.36 75.36 3.29 75.36 A5.15005
								 5.0339 0 0 1 7.24 77.08 L8.11 78.1 L20.21 92.26 L20.21 78.19 L20.21 78.19 A2.89605 2.83073 0 0 1
								 26 78.19 L26 97.62 C26 99.12 24.64 100.37 22.71 100.37 A5.14683 5.03075 0 0 1 18.76 98.64 L5.79
								 83.46 L5.79 97.54 L5.79 97.54 Z" class="st3"/>
				</g>
				<g id="shape2789-8" transform="translate(47.1613,-4.40665)">
					<title>Sheet.2789</title>
					<path d="M1.14 99.51 L1.51 99.51 L1.51 98.7 L1.81 98.7 a0.835383 0.816542 0 0 1 0.410844 0.0669297 a0.515569
								 0.503941 0 0 1 0.195755 0.468508 L2.41 99.4 L2.42 99.47 a0.127281 0.12441 0 0 1 0.00644461 0.0259845
								 C2.43 99.5 2.43 99.5 2.44 99.51 L2.78 99.51 L2.77 99.49 a0.240867 0.235435 0 0 1 -0.0161115 -0.104725
								 C2.74 99.32 2.74 99.27 2.74 99.23 L2.74 99.08 a0.597738 0.584257 -180 0 0 -0.114392 -0.319688 a0.532486
								 0.520477 -180 0 0 -0.364926 -0.200002 a0.90144 0.881109 -180 0 0 0.304508 -0.0968512 a0.456762 0.44646
								 -180 0 0 0.204617 -0.405515 a0.515569 0.503941 -180 0 0 -0.323842 -0.519689 A1.61115 1.57482 -180
								 0 0 1.88 97.46 L1.14 97.46 L1.14 99.51 ZM2.2 98.4 a0.957025 0.935441 0 0 1 -0.352037 0.0456697 L1.51
								 98.45 L1.51 97.7 L1.83 97.7 a0.930441 0.909456 0 0 1 0.444678 0.0803156 a0.317397 0.310239 0 0 1
								 0.138559 0.299215 a0.322231 0.314963 0 0 1 -0.2167 0.320475 ZM3.27 97.17 A1.85927 1.81734 -180 0
								 0 1.91 96.63 A1.91204 1.86891 -180 1 0 1.91 100.37 A1.91486 1.87167 -180 0 0 3.27 97.17 ZM3.08 97.36
								 A1.56604 1.53072 0 0 1 3.56 98.5 A1.64338 1.60631 0 0 1 0.75 99.64 A1.62163 1.58505 0 0 1 0.27 98.5
								 A1.64821 1.61104 0 0 1 1.91 96.88 A1.56765 1.5323 0 0 1 3.08 97.36 Z" class="st4"/>
				</g>
			</g>
		</g>
	</g>
</svg>
